X: 25481
T: Marco's
R: reel
M: 4/4
K: Dmajor
F2F/F/F FEDF|A/B/A GB AGFA|dFAd FAdA|cB B/B/B cBB2|E3F GFGA|
cE E/E/E cdcB|1 A2 A/A/A AGFE|DFBF AFGE:|2 A2 ge cABc|d/e/d ce d2 ag||
f2f/f/f fedf|edce d2 d/d/d|dFAd FAdA|cB B/B/B cBB2|
g/g/g ga gfeg|fedf e2 e/e/e|ABcd efge|dABd ABde|
f2f/f/f fedf|edce d2 d/d/d|dFAd FAdA|cB B/B/B cBB2|
E3F GFGA|cE E/E/E cdcB|A2 ge cABc|d/e/d ce dBAG||

